X: 77
T:Crooked Stove Pipe
% Nottingham Music Database
S:Kevin Briggs, via EF
M:4/4
L:1/4
K:G
d|"G"GB B/2c/2d/2B/2|"G"GB B/2c/2d/2B/2|"G"GB e3/2B/2|"Am"dc c3/2A/2|
"D"FA A/2B/2c/2A/2|"D"FA A/2B/2c/2d/2|"D7"ed ef|"G"g3:||:
K:G
G/2A/2|"G"B2 BA|"G"G2 GE|"C"FE "G"FG|"Am"AG AB|"D"c2 cA|"D"F2 FE|"D7"DD EF|\
"G"G3:|


